Simply-White-Circles/scalable/actions/configure-shortcuts.svg

<svg xmlns="http://www.w3.org/2000/svg" width="24" height="24"><defs><style id="current-color-scheme"></style></defs><path d="M6 6S4 6 4 8v8c0 2 2 2 2 2h11s2 0 2-2V8c0-2-2-2-2-2H6zm.25 2h1.5c.14 0 .25.11.25.25v1.5c0 .14-.11.25-.25.25h-1.5A.25.25 0 0 1 6 9.75v-1.5c0-.14.11-.25.25-.25zm3 0h1.5c.14 0 .25.11.25.25v1.5c0 .14-.11.25-.25.25h-1.5A.25.25 0 0 1 9 9.75v-1.5c0-.14.11-.25.25-.25zm3 0h1.5c.14 0 .25.11.25.25v1.5c0 .14-.11.25-.25.25h-1.5a.25.25 0 0 1-.25-.25v-1.5c0-.14.11-.25.25-.25zm3 0h1.5c.14 0 .25.11.25.25v1.5c0 .14-.11.25-.25.25h-1.5a.25.25 0 0 1-.25-.25v-1.5c0-.14.11-.25.25-.25zm-9 3h1.5c.14 0 .25.11.25.25v1.5c0 .14-.11.25-.25.25h-1.5a.25.25 0 0 1-.25-.25v-1.5c0-.14.11-.25.25-.25zm3 0h1.5c.14 0 .25.11.25.25v1.5c0 .14-.11.25-.25.25h-1.5a.25.25 0 0 1-.25-.25v-1.5c0-.14.11-.25.25-.25zm3 0h1.5c.14 0 .25.11.25.25v1.5c0 .14-.11.25-.25.25h-1.5a.25.25 0 0 1-.25-.25v-1.5c0-.14.11-.25.25-.25zm3 0h1.5c.14 0 .25.11.25.25v1.5c0 .14-.11.25-.25.25h-1.5a.25.25 0 0 1-.25-.25v-1.5c0-.14.11-.25.25-.25zm-7 3h6.5c.14 0 .25.11.25.25v1.5c0 .14-.11.25-.25.25h-6.5a.25.25 0 0 1-.25-.25v-1.5c0-.14.11-.25.25-.25z" fill="currentColor" color="#e6e6e6"/></svg>

<?xml version="1.0" encoding="UTF-8" standalone="no"?>
<svg
   xmlns:dc="http://purl.org/dc/elements/1.1/"
   xmlns:cc="http://creativecommons.org/ns#"
   xmlns:rdf="http://www.w3.org/1999/02/22-rdf-syntax-ns#"
   xmlns:svg="http://www.w3.org/2000/svg"
   xmlns="http://www.w3.org/2000/svg"
   xmlns:sodipodi="http://sodipodi.sourceforge.net/DTD/sodipodi-0.dtd"
   xmlns:inkscape="http://www.inkscape.org/namespaces/inkscape"
   width="24"
   height="24"
   version="1.1"
   id="svg7"
   sodipodi:docname="configure-shortcuts.svg"
   inkscape:version="0.92.4 (5da689c313, 2019-01-14)">
  <metadata
     id="metadata11">
    <rdf:RDF>
      <cc:Work
         rdf:about="">
        <dc:format>image/svg+xml</dc:format>
        <dc:type
           rdf:resource="http://purl.org/dc/dcmitype/StillImage" />
        <dc:title></dc:title>
      </cc:Work>
    </rdf:RDF>
  </metadata>
  <sodipodi:namedview
     pagecolor="#ffffff"
     bordercolor="#666666"
     borderopacity="1"
     objecttolerance="10"
     gridtolerance="10"
     guidetolerance="10"
     inkscape:pageopacity="0"
     inkscape:pageshadow="2"
     inkscape:window-width="1078"
     inkscape:window-height="480"
     id="namedview9"
     showgrid="false"
     inkscape:zoom="9.8333333"
     inkscape:cx="-0.81355932"
     inkscape:cy="12"
     inkscape:window-x="0"
     inkscape:window-y="28"
     inkscape:window-maximized="0"
     inkscape:current-layer="svg7" />
  <defs
     id="defs3">
    <style
       id="current-color-scheme" />
  </defs>
  <path
     d="M 6,6 C 6,6 4,6 4,8 v 8 c 0,2 2,2 2,2 h 11 c 0,0 2,0 2,-2 V 8 C 19,6 17,6 17,6 Z m 0.25,2 h 1.5 C 7.89,8 8,8.11 8,8.25 v 1.5 C 8,9.89 7.89,10 7.75,10 H 6.25 A 0.25,0.25 0 0 1 6,9.75 V 8.25 C 6,8.11 6.11,8 6.25,8 Z m 3,0 h 1.5 C 10.89,8 11,8.11 11,8.25 v 1.5 C 11,9.89 10.89,10 10.75,10 H 9.25 A 0.25,0.25 0 0 1 9,9.75 V 8.25 C 9,8.11 9.11,8 9.25,8 Z m 3,0 h 1.5 C 13.89,8 14,8.11 14,8.25 v 1.5 C 14,9.89 13.89,10 13.75,10 h -1.5 A 0.25,0.25 0 0 1 12,9.75 V 8.25 C 12,8.11 12.11,8 12.25,8 Z m 3,0 h 1.5 C 16.89,8 17,8.11 17,8.25 v 1.5 C 17,9.89 16.89,10 16.75,10 h -1.5 A 0.25,0.25 0 0 1 15,9.75 V 8.25 C 15,8.11 15.11,8 15.25,8 Z m -9,3 h 1.5 C 7.89,11 8,11.11 8,11.25 v 1.5 C 8,12.89 7.89,13 7.75,13 H 6.25 A 0.25,0.25 0 0 1 6,12.75 v -1.5 C 6,11.11 6.11,11 6.25,11 Z m 3,0 h 1.5 c 0.14,0 0.25,0.11 0.25,0.25 v 1.5 C 11,12.89 10.89,13 10.75,13 H 9.25 A 0.25,0.25 0 0 1 9,12.75 v -1.5 C 9,11.11 9.11,11 9.25,11 Z m 3,0 h 1.5 c 0.14,0 0.25,0.11 0.25,0.25 v 1.5 C 14,12.89 13.89,13 13.75,13 h -1.5 A 0.25,0.25 0 0 1 12,12.75 v -1.5 C 12,11.11 12.11,11 12.25,11 Z m 3,0 h 1.5 c 0.14,0 0.25,0.11 0.25,0.25 v 1.5 C 17,12.89 16.89,13 16.75,13 h -1.5 A 0.25,0.25 0 0 1 15,12.75 v -1.5 C 15,11.11 15.11,11 15.25,11 Z m -7,3 h 6.5 c 0.14,0 0.25,0.11 0.25,0.25 v 1.5 C 15,15.89 14.89,16 14.75,16 H 8.25 A 0.25,0.25 0 0 1 8,15.75 v -1.5 C 8,14.11 8.11,14 8.25,14 Z"
     id="path5"
     inkscape:connector-curvature="0"
     style="color:#e6e6e6;fill:currentColor" />
</svg>
